!!!OTL: Der Kuckuck auf dem Tore (3-90), S. 249
!!!id: P1063
**kern
*clefG2
*k[b-]
*B-:
{4f
=1
4b-
4f
4b-
4cc
=2
2dd
2cc}
=3
{8b-
8b-
4b-
4g
4a
=4
8b-
8b-
4cc
8cc
8cc
4cc
=5
4f
4f
4f}
=6
{4f
=7
4b-
4f
4b-
4cc
=8
2dd
2cc
=9
2.b-}
==
*-
!!!minrhy: 8
!!!meters: 4/4 ]  ZZ[3
!!!cut: Der Kuckuck auf dem Tore (3-90), S. 249
!!!reg: Lothringen
!!!trd: PINCK, Louis: Verklingende Weisen, Bd3, Metz 1933
!!!rhy1: X_  X_X_X_X_  X__X__
!!!rhy2: XXX_X_X_  XXX_XXX_  X_X_X_
!!!key: P1063  08 Bb 4/4 ]  ZZ[3
!!!mod: SECHSTONSKALA DUR ?]  AMBITUS[6
!!!kad: 2-51
!!!akz: 1132_1-612-5-5_113211_
!!!fot: 'a__b__av_
!!!for: 'a__b__aw_
!!!fok: '/__Sd_^a_
!! PHRAS[VORWIEGEND AUFTAKTIG]
!!!fkt: Trinklied, Liebeslied
!! LOTH VKL
!! PR[23] 2K[6] 2G[21] 3K[4] 3G[0] 4A[4] 4Ü[0] 5A[4] 6K[0] 6G[0]
!! 7K[0] 7G[0] 8A[0] MEHR[0] SI[38] ABS[53] SR[26] SP[11]
!! ST[25] 2k[8] 2g[23] 3k[2] 3g[0] 4d[4] 4ü[0] 5d[4] 6k[0] 6g[0]
!! 7k[0] 7g[0] 8d[0] mehr[0] si[40] dm[-2] sr[30] sp[9]
!! 1F[2] 2F[88] 3F[2] 4F[0] LF[0] 2P[2] 3P[8] 4P[0] TRI[0] DF[5] AB[64]
!! TF[0] U3K[0] U3[0] U4[0] U4Ü[0] U5[6] U6K[0] U6[0] U7K[4] U7[4]
!! N1[28] N2K[0] N2[7] N3K[7] N3[0] N4[15] N4Ü[0] N5[30] N6K[0] N6[0]
!!!n7k: 0] N7[0] O1[0] O2K[0] O2[0] O3K[0] O3[0] HÖ[0
